scratch-gui/src/addons/addons/mute-project/mute.svg

<?xml version="1.0" encoding="UTF-8"?>
<svg width="20px" height="20px" viewBox="0 0 20 20" version="1.1" xmlns="http://www.w3.org/2000/svg" xmlns:xlink="http://www.w3.org/1999/xlink">
    <!-- Generator: Sketch 55.2 (78181) - https://sketchapp.com -->
    <title>Sound/Effects/Mute</title>
    <desc>Created with Sketch.</desc>
    <g id="Sound/Effects/Mute" stroke="none" stroke-width="1" fill="none" fill-rule="evenodd">
        <path fill="#CF63CF" d="M13.4541749,5.04815243 L15.6281168,2.87421054 C15.92101,2.58131732 16.3958837,2.58131732 16.688777,2.87421054 C16.9816702,3.16710376 16.9816702,3.64197749 16.688777,3.93487071 L4.53033009,16.0933176 C4.23743687,16.3862108 3.76256313,16.3862108 3.46966991,16.0933176 C3.1767767,15.8004244 3.1767767,15.3255506 3.46966991,15.0326574 L6.31214932,12.190178 C6.1241191,12.0621379 6,11.8463331 6,11.6029875 L6,8.6374875 C6,8.2471125 6.31941527,7.9276125 6.70968675,7.9276125 L7.02460322,7.9276125 C8.75776848,7.9276125 10.294111,6.8138625 10.8339678,5.1668625 C10.9295674,4.8743625 11.2017452,4.6774875 11.5076641,4.6774875 L12.8314379,4.6774875 C13.1002844,4.6774875 13.3341075,4.82717208 13.4541749,5.04815243 Z M13.54,9.08364771 L13.54,14.8531125 C13.54,15.2457375 13.2228341,15.5629875 12.8314379,15.5629875 L11.5076641,15.5629875 C11.2017452,15.5629875 10.9295674,15.3661125 10.8339678,15.0736125 C10.5773785,14.2908077 10.0956813,13.628465 9.47473531,13.1489124 L13.54,9.08364771 Z" id="path-1"></path>
    </g>
</svg>

<svg xmlns="http://www.w3.org/2000/svg" width="20" height="20"><path fill="#CF63CF" fill-rule="evenodd" d="m13.454 5.048 2.174-2.174a.75.75 0 0 1 1.06 1.06L4.53 16.095a.75.75 0 0 1-1.06-1.061l2.842-2.843A.71.71 0 0 1 6 11.603V8.637c0-.39.32-.71.71-.71h.315a4.009 4.009 0 0 0 3.809-2.76.71.71 0 0 1 .674-.49h1.323c.27 0 .503.15.623.371Zm.086 4.036v5.77c0 .392-.317.709-.709.709h-1.323a.71.71 0 0 1-.674-.49 4.004 4.004 0 0 0-1.36-1.924l4.066-4.065Z"/></svg>
